X:887
M:C|
L:1/8
K:G
d|g2 bg afed|edef geBG|g2bg afed|edef g2ga|bagf gfed|
edef geBG|cBcd efge|dBGB A2G||

